X:1
T:Title
L:1/8
Q:1/4=100
M:4/4
K:Bb
V:1 treble nm="Church Organ, Staff"
V:1
 F2 B2 B2 d2 | B2 dc BA B2- | BF G2- G/ z/ B e2- | ed c2 B2 A2 | c2 B2 A2 G2- | GF F6 | %6
w: By~J.~Waring~~Mr.~Herbert~S.~Irons * * *||||||
 F2 c2- c/ z/ B A2 | F2 B2 c2 d2 | c2 d2- d/ z/ c B2 | G2 c2- c/ z/ B A2 | F2 F2 B2 d2- | %11
w: |||||
 dc d2 e2 f2- | fe d2 c2 B2 | A2 BA Bc d2 | e2 d2 c2 B2 | A2 B6 |] %16
w: |||||

